X:131
T:Rodney's Glory
R:Set Dance
O:Ireland
M:4/4
K:ADor
ed|\
c2 B>c A>B (3cBA|B>G E>F G2 c>d|\
e>g e>d c>d e>f|g>f g>e d>=f e>d|
c2 B>c A>B (3cBA|B>G E>F G2 e>d|\
c2 B>A G>A (3BAG|A2 A>G A2::
c>d|\
e>a a>g a7/2b/|a>g e>d c2A2|\
g>f g>e a>g e>^c|d>c A>F G7/2 B/|
A>G A>B c>B c>d|e>f (3gfe a7/2b/|\
a>g e>d c>d e>f|g>f g>e d>=f e>d|
c2 (3BcB A>B (3cBA|B>G E>F G2 e>d|\
c2 B>A G>A (3BAG|A2 A>G A2:|
